X:681
T:Mrs. Bourke
R:Reel
B:The Athole Collection
M:C|
L:1/8
K:F
C|~F2 AF EGGB|AFAc ~f2 cf|dBcF EGGB|AcCE F2F:|
c|~fcfa gceg|a/g/f g/f/e ~f2 cB|AcdB cffd|cBAG ~F2 FA|
~fcfa gceg|a/g/f g/f/e ~f2 cf|AFcF fdcB|AcCE ~F2F||

